build/img/sprites/listGlass.svg

<svg width="24" height="25" viewBox="0 0 24 25" fill="none" xmlns="http://www.w3.org/2000/svg">
<path d="M3 6.5C3 6.30109 3.07902 6.11032 3.21967 5.96967C3.36032 5.82902 3.55109 5.75 3.75 5.75H20.25C20.4489 5.75 20.6397 5.82902 20.7803 5.96967C20.921 6.11032 21 6.30109 21 6.5C21 6.69891 20.921 6.88968 20.7803 7.03033C20.6397 7.17098 20.4489 7.25 20.25 7.25H3.75C3.55109 7.25 3.36032 7.17098 3.21967 7.03033C3.07902 6.88968 3 6.69891 3 6.5ZM3.75 13.25H10.5C10.6989 13.25 10.8897 13.171 11.0303 13.0303C11.171 12.8897 11.25 12.6989 11.25 12.5C11.25 12.3011 11.171 12.1103 11.0303 11.9697C10.8897 11.829 10.6989 11.75 10.5 11.75H3.75C3.55109 11.75 3.36032 11.829 3.21967 11.9697C3.07902 12.1103 3 12.3011 3 12.5C3 12.6989 3.07902 12.8897 3.21967 13.0303C3.36032 13.171 3.55109 13.25 3.75 13.25ZM12 17.75H3.75C3.55109 17.75 3.36032 17.829 3.21967 17.9697C3.07902 18.1103 3 18.3011 3 18.5C3 18.6989 3.07902 18.8897 3.21967 19.0303C3.36032 19.171 3.55109 19.25 3.75 19.25H12C12.1989 19.25 12.3897 19.171 12.5303 19.0303C12.671 18.8897 12.75 18.6989 12.75 18.5C12.75 18.3011 12.671 18.1103 12.5303 17.9697C12.3897 17.829 12.1989 17.75 12 17.75ZM22.2806 19.0306C22.211 19.1004 22.1283 19.1557 22.0372 19.1934C21.9462 19.2312 21.8486 19.2506 21.75 19.2506C21.6514 19.2506 21.5538 19.2312 21.4628 19.1934C21.3717 19.1557 21.289 19.1004 21.2194 19.0306L19.3125 17.1275C18.537 17.6391 17.5993 17.8447 16.6809 17.7043C15.7625 17.564 14.9289 17.0877 14.3416 16.3679C13.7544 15.648 13.4552 14.7357 13.5022 13.8079C13.5491 12.88 13.9388 12.0026 14.5957 11.3457C15.2526 10.6888 16.13 10.2991 17.0579 10.2522C17.9857 10.2052 18.898 10.5044 19.6179 11.0916C20.3377 11.6789 20.814 12.5125 20.9543 13.4309C21.0947 14.3493 20.8891 15.287 20.3775 16.0625L22.2806 17.9656C22.3509 18.0353 22.4067 18.1183 22.4448 18.2097C22.4829 18.3011 22.5025 18.3991 22.5025 18.4981C22.5025 18.5971 22.4829 18.6952 22.4448 18.7866C22.4067 18.878 22.3509 18.9609 22.2806 19.0306ZM17.25 16.25C17.695 16.25 18.13 16.118 18.5 15.8708C18.87 15.6236 19.1584 15.2722 19.3287 14.861C19.499 14.4499 19.5436 13.9975 19.4568 13.561C19.37 13.1246 19.1557 12.7237 18.841 12.409C18.5263 12.0943 18.1254 11.88 17.689 11.7932C17.2525 11.7064 16.8001 11.751 16.389 11.9213C15.9778 12.0916 15.6264 12.38 15.3792 12.75C15.132 13.12 15 13.555 15 14C15 14.5967 15.2371 15.169 15.659 15.591C16.081 16.0129 16.6533 16.25 17.25 16.25Z" fill="currentColor"/>
</svg>

<svg width="24" height="25" viewBox="0 0 24 25" fill="none" xmlns="http://www.w3.org/2000/svg"><path d="M3 6.5a.75.75 0 01.75-.75h16.5a.75.75 0 110 1.5H3.75A.75.75 0 013 6.5zm.75 6.75h6.75a.75.75 0 100-1.5H3.75a.75.75 0 100 1.5zm8.25 4.5H3.75a.75.75 0 100 1.5H12a.75.75 0 100-1.5zm10.28 1.28a.747.747 0 01-1.06 0l-1.907-1.902a3.75 3.75 0 111.065-1.066l1.903 1.904a.75.75 0 010 1.065zm-5.03-2.78a2.25 2.25 0 100-4.5 2.25 2.25 0 000 4.5z" fill="currentColor"/></svg>
